X:99
M:6/8
L:1/8
K:D
|: g | fga agf | efg gfe | def Bcd | c3 ABc | dcB AGF | GAB AFA | D2d dec | d3 D3 :|

